icons/svg/shields/h_blue_square_night_big_shield.svg

<?xml version="1.0" encoding="UTF-8" standalone="no"?>
<!-- Generator: Adobe Illustrator 16.0.4, SVG Export Plug-In . SVG Version: 6.00 Build 0)  -->

<svg
   xmlns:dc="http://purl.org/dc/elements/1.1/"
   xmlns:cc="http://creativecommons.org/ns#"
   xmlns:rdf="http://www.w3.org/1999/02/22-rdf-syntax-ns#"
   xmlns:svg="http://www.w3.org/2000/svg"
   xmlns="http://www.w3.org/2000/svg"
   xmlns:sodipodi="http://sodipodi.sourceforge.net/DTD/sodipodi-0.dtd"
   xmlns:inkscape="http://www.inkscape.org/namespaces/inkscape"
   version="1.1"
   id="Слой_1"
   x="0px"
   y="0px"
   width="22"
   height="22"
   viewBox="0 0 21.999999 22"
   enable-background="new 0 0 17.113 17.143"
   xml:space="preserve"
   inkscape:version="0.91 r13725"
   sodipodi:docname="h_blue_square_night_big_shield.svg"><metadata
     id="metadata13"><rdf:RDF><cc:Work
         rdf:about=""><dc:format>image/svg+xml</dc:format><dc:type
           rdf:resource="http://purl.org/dc/dcmitype/StillImage" /><dc:title /></cc:Work></rdf:RDF></metadata><defs
     id="defs11" /><sodipodi:namedview
     pagecolor="#ffffff"
     bordercolor="#666666"
     borderopacity="1"
     objecttolerance="10"
     gridtolerance="10"
     guidetolerance="10"
     inkscape:pageopacity="0"
     inkscape:pageshadow="2"
     inkscape:window-width="1920"
     inkscape:window-height="1051"
     id="namedview9"
     showgrid="false"
     inkscape:zoom="22.627417"
     inkscape:cx="-5.0941185"
     inkscape:cy="12.174636"
     inkscape:window-x="3840"
     inkscape:window-y="0"
     inkscape:window-maximized="1"
     inkscape:current-layer="Слой_1"
     fit-margin-top="0"
     fit-margin-left="0"
     fit-margin-right="0"
     fit-margin-bottom="0"
     inkscape:showpageshadow="false"
     inkscape:snap-object-midpoints="true"
     inkscape:snap-center="true"
     inkscape:snap-page="true"><inkscape:grid
       type="xygrid"
       id="grid2991"
       empspacing="5"
       visible="true"
       enabled="true"
       snapvisiblegridlinesonly="true"
       originx="-1.3381215e-05px"
       originy="0.0064353387px" /></sodipodi:namedview><g
     id="g2117"
     transform="matrix(0.08631273,0,0,0.08631273,32.374301,0.24073286)"
     style="fill:#000000"><g
       id="g2119"
       style="fill:#000000"><g
         id="g2121"
         style="fill:#000000"><path
           inkscape:connector-curvature="0"
           id="path2125"
           style="fill:#000000;stroke:none"
           d="" /></g><g
         id="g2127"
         style="fill:#000000"><path
           inkscape:connector-curvature="0"
           id="path2131"
           style="fill:#000000;stroke:none"
           d="" /></g></g></g><g
     transform="matrix(0.06635536,0,0,0.06635536,28.239461,-0.58703714)"
     id="g1327-1"
     style="fill:#ffffff;stroke:none" /><g
     transform="matrix(0.03243578,0,0,0.03246179,0.4048143,2.7454243)"
     id="g1327-2"
     style="opacity:0.84899998;fill:#0086c7;fill-opacity:1;stroke:none"><path
       inkscape:connector-curvature="0"
       d="M 209.46697,-65.053751 C 97.426676,-61.596302 7.2359269,14.756444 7.3032039,126.51058 L 7.4487175,368.22412 C 7.5817173,589.15105 210.10771,573.52713 215.15011,573.52713 l 243.49117,0 c 110.72206,0 187.24695,-62.49207 186.87425,-207.24463 L 644.89817,126.51058 C 644.54335,-11.297038 539.18475,-59.700408 442.17835,-64.984789 c 0,0 -232.87454,-0.222123 -232.71138,-0.06896 z"
       style="fill:#0086c7;fill-opacity:1;stroke:none"
       id="path1329-2"
       sodipodi:nodetypes="csssssssc" /></g><path
     style="color:#000000;clip-rule:nonzero;display:inline;overflow:visible;visibility:visible;opacity:1;isolation:auto;mix-blend-mode:normal;color-interpolation:sRGB;color-interpolation-filters:linearRGB;solid-color:#000000;solid-opacity:1;fill:#ffffff;fill-opacity:0.54655869;fill-rule:nonzero;stroke:none;stroke-width:1;stroke-linecap:butt;stroke-linejoin:miter;stroke-miterlimit:4;stroke-dasharray:none;stroke-dashoffset:0;stroke-opacity:1;marker:none;color-rendering:auto;image-rendering:auto;shape-rendering:auto;text-rendering:auto;enable-background:accumulate;filter-blend-mode:normal;filter-gaussianBlur-deviation:0"
     d="M 6.9464097,-0.03944956 C 3.0829275,0.07986912 -0.00235154,2.7067814 -3.2199175e-5,6.5634869 l 0,8.3586301 C 0.00460895,22.546444 6.9633694,22.021228 7.137246,22.021228 l 8.396799,0 c 3.818025,0 6.463119,-2.179943 6.450267,-7.175445 l 0,-8.2822961 c -0.01223,-4.7558276 -3.63954,-6.42056913 -6.984609,-6.60293646 0,0 -8.0589189,-0.0052885 -8.0532933,0 z m 0.2384185,0.68522027 c -0.00529,-0.004959 7.5761658,0 7.5761658,0 3.143396,0.17137239 6.526341,1.72258729 6.537808,6.19168809 l 0.03846,7.7684532 c 0.01206,4.694325 -2.488654,6.765772 -6.076316,6.730096 l -7.8565262,-0.07813 c -0.1621521,-0.0016 -6.75308874,0.589605 -6.75739599,-6.575056 l 0,-7.8453682 C 0.64484008,3.2132724 3.5542733,0.75789598 7.1848282,0.64577071 Z"
     id="path1329-6"
     inkscape:connector-curvature="0"
     sodipodi:nodetypes="cccssccccccccssccc" /></svg>

<svg width="22" height="22" viewBox="0 0 22 22" fill="none" xmlns="http://www.w3.org/2000/svg">
<g clip-path="url(#clip0)">
<g opacity="0.849">
<path opacity="0.849" d="M7.19904 0.633676C3.56493 0.745911 0.63952 3.22446 0.641702 6.8522L0.646422 14.6987C0.650736 21.8703 7.21982 21.3632 7.38338 21.3632H15.2812C18.8726 21.3632 21.3547 19.3345 21.3426 14.6356L21.3226 6.8522C21.3111 2.37872 17.8937 0.807455 14.7472 0.635915C14.7472 0.635915 7.19375 0.628704 7.19904 0.633676V0.633676Z" fill="#0086C7"/>
</g>
<path d="M6.94641 -0.0394586C3.08293 0.07986 -0.00234855 2.70677 -2.92108e-05 6.56348V14.9221C0.00461194 22.5464 6.96337 22.0212 7.13725 22.0212H15.534C19.3521 22.0212 21.9972 19.8413 21.9843 14.8458V6.56348C21.9721 1.80765 18.3448 0.142909 14.9997 -0.0394586C14.9997 -0.0394586 6.94079 -0.0447471 6.94641 -0.0394586V-0.0394586ZM7.18483 0.645762C7.17954 0.640803 14.761 0.645762 14.761 0.645762C17.9044 0.817134 21.2873 2.36835 21.2988 6.83745L21.3373 14.6059C21.3493 19.3002 18.8486 21.3717 15.2609 21.336L7.40442 21.2579C7.24227 21.2563 0.651334 21.8475 0.647027 14.6828V6.83744C0.644843 3.21326 3.55428 0.757887 7.18483 0.645762Z" fill="white" fill-opacity="0.546559"/>
</g>
<defs>
<clipPath id="clip0">
<path d="M0 0H22V22H0V0Z" fill="white"/>
</clipPath>
</defs>
</svg>
